X: 2186
T: Şu Dağları Delmeli
C: Fahri Kayahan
O: Turkey
F: http://compmusic.upf.edu/node/140
N: gerdaniye--turku--sofyan--su_daglari--fahri_kayahan
N: makam= gerdaniye
N: form= turku
N: usul= sofyan = 4/4
M: 4/4
L: 1/16
K: C _2/4B ^3/4f  
Q: 1/4=174
%%MIDI tuningsystem comma53
z4 e2e2 d2c2 e4  | e2d6 e2c2 d4  | z4 e2e2 d2c2 e4  | \
w:  ARANAĞME   |   |   | 
e2d6 d2B2 c2B2  | 
w:   | 
d4 d2d2 c2B2 d4  | d2c4B2 c4 B2A2  | \
w:   |   | 
A4 A2c2 B2A2 c4  | c2B4A2 A8  | 
w:   |   | 
z4 e2e2 d2c2 e4  | e2d6 e2c2 d4  | z4 e2e2 d2c2 e4  | \
w:  ARANAĞME   |   |   | 
e2d6 d2B2 c2B2  | 
w:   | 
d4 d2d2 c2B2 d4  | d2c4B2 c4 B2A2  | \
w:   |   | 
A4 A2c2 B2A2 c4  | c2B4A2 A8  | 
w:   |   | 
z4 g2g2 g2f2 g2f2  | g2f2 g2f2 g2e4d2  | \
w:  Şu  dağ la *  rı   |  del *  me *  li    | 
g2f2 g2f2 g2f2 g2f2  | 
w:  Şu  dağ *  *  la *  rı   | 
g2f2 g2f2 g2e4d2  | g2f2 g2f2 g2e2 e2d2  | \
w:  del *  me *  li    |  Kül_ *  e *  dip_ *  e  | 
e2d6 e2c2 d4  | z4 e2=f2 f4 f4  | 
w:  le me li    |  İ çe rim  kan   | 
=f2e2 f2g2 g2f2 e2d2  | z4 e2e2 e2c2 e4  | \
w:  ağ *  lı *  yor    |  Yâ ri mi  *  gör  | 
e2d6 d2B2 c2B2  | d4 d2d2 c2B2 d4  | 
w:  me ye *  *  li    |  *  İ çe rim  *  kan   | 
d2c2 c2B2 c2B2 B2A2  | A4 c2c2 B2A2 c4  | \
w:  ağ *  lı *  yor    |  *  Yâ ri mi  *  gör  | 
c2B2 B2A2 A8  | z4 e2e2 d2c2 e4  | 
w:  me *  ye *  li    |  Uy  uy  de me  | 
e2d6 e2c2 d4  | z4 e2e2 d2c2 e4  | e2d6 d2B2 c2B2  | \
w:  ye  gel dim    |  Uy  uy  de me  |  ye  gel dim    | 
d4 d2d2 c2B2 d4  | 
w:  *  Yâ ri  gör *  me  | 
d2c4B2 c4 B2A2  | A4 c2d2 d4 d4  | d2c4B2 c4 B2A2  | \
w:  ye  gel *  dim    |  *  Yav rum  ya ren   |  ne ren *  de    | 
A4 c2c2 B2A2 c4  | 
w:  *  Mer hem  ol *  ma  | 
c2B4A2 A8  | z4 e2e2 d2c2 e4  | e2d6 e2c2 d4  | \
w:  ya  gel *  dim    |  Uy  uy  de me  |  ye  gel dim    | 
z4 e2e2 d2c2 e4  | 
w:  Uy  uy  de me  | 
e2d6 d2B2 c2B2  | d4 d2d2 c2B2 d4  | \
w:  ye  gel dim    |  *  Yâ ri  gör *  me  | 
d2c4B2 c4 B2A2  | A4 c2d2 d4 d4  | 
w:  ye  gel *  dim    |  *  Yav rum  ya ren   | 
d2c4B2 c4 B2A2  | A4 c2c2 B2A2 c4  | \
w:  ne ren *  de    |  *  Mer hem  ol *  ma  | 
c2B4A2 A8  | z4 e2e2 d2c2 e4  | 
w:  ya  gel *  dim    |  ARANAĞME   | 
e2d6 e2c2 d4  | z4 e2e2 d2c2 e4  | e2d6 d2B2 c2B2  | \
w:   |   |   | 
d4 d2d2 c2B2 d4  | 
w:   | 
d2c4B2 c4 B2A2  | A4 A2c2 B2A2 c4  | \
w:   |   | 
c2B4A2 A8  | z4 e2e2 d2c2 e4  | 
w:   |  ARANAĞME   | 
e2d6 e2c2 d4  | z4 e2e2 d2c2 e4  | e2d6 d2B2 c2B2  | \
w:   |   |   | 
d4 d2d2 c2B2 d4  | 
w:   | 
d2c4B2 c4 B2A2  | A4 A2c2 B2A2 c4  | \
w:   |   | 
c2B4A2 A8  | z4 g2g2 g2f2 g2f2  | 
w:   |  Şu  dağ la *  rı   | 
g2f2 g2f2 g2e4d2  | g2f2 g2f2 g2f2 g2f2  | \
w:  del *  me *  li    |  Şu  dağ *  *  la *  rı   | 
g2f2 g2f2 g2e4d2  | 
w:  del *  me *  li    | 
g2f2 g2f2 g2e2 e2d2  | e2d6 e2c2 d4  | \
w:  Kül_ *  e *  dip_ *  e  |  le me li    | 
z4 e2=f2 f4 f4  | =f2e2 f2g2 g2f2 e2d2  | 
w:  İ çe rim  kan   |  ağ *  lı *  yor    | 
z4 e2e2 e2c2 e4  | e2d6 d2B2 c2B2  | \
w:  Yâ ri mi  *  gör  |  me ye *  *  li    | 
d4 d2d2 c2B2 d4  | d2c2 c2B2 c2B2 B2A2  | 
w:  *  İ çe rim  *  kan   |  ağ *  lı *  yor    | 
A4 c2c2 B2A2 c4  | c2B2 B2A2 A8  | z4 e2e2 d2c2 e4  | \
w:  *  Yâ ri mi  *  gör  |  me *  ye *  li    |  Uy  uy  de me  | 
e2d6 e2c2 d4  | 
w:  ye  gel dim    | 
z4 e2e2 d2c2 e4  | e2d6 d2B2 c2B2  | \
w:  Uy  uy  de me  |  ye  gel dim    | 
d4 d2d2 c2B2 d4  | d2c4B2 c4 B2A2  | 
w:  *  Yâ ri  gör *  me  |  ye  gel *  dim    | 
A4 c2d2 d4 d4  | d2c4B2 c4 B2A2  | A4 c2c2 B2A2 c4  | \
w:  *  Yav rum  ya ren   |  ne ren *  de    |  *  Mer hem  ol *  ma  | 
c2B4A2 A8  | 
w:  ya  gel *  dim    | 
z4 e2e2 d2c2 e4  | e2d6 e2c2 d4  | z4 e2e2 d2c2 e4  | \
w:  Uy  uy  de me  |  ye  gel dim    |  Uy  uy  de me  | 
e2d6 d2B2 c2B2  | 
w:  ye  gel dim    | 
d4 d2d2 c2B2 d4  | d2c4B2 c4 B2A2  | \
w:  *  Yâ ri  gör *  me  |  ye  gel *  dim    | 
A4 c2d2 d4 d4  | d2c4B2 c4 B2A2  | 
w:  *  Yav rum  ya ren   |  ne ren *  de    | 
A4 c2c2 B2A2 c4  | c2B4A2 A8  | |


